X: 7107
T: Christmas Eve
R: reel
M: 4/4
K: Gmajor
E|D3E G2GA|B2dB ABGA|BAGE DB,DE|G2BG ABGE|
D2DE ~G3A|B2dB ABGA|BA~A2 GAEG|ABGE G3:|
A|BABd e2eg|abge g2eg|abge ~g3e|dedB ABGA|
B2Bd ~e3g|abge g2eg|abge dB~B2|ABGE G3:|
A|BG~G2 DGBd|eg~g2 egdc|BG~G2 DGBd|cA~A2 EAcA|
BG~G2 DGBd|eg~g2 egdg|bg~g2 egdB|ABGE G3:|

